www/assets/icons/plus_one.svg

<svg xmlns="http://www.w3.org/2000/svg" width="24" height="24" viewBox="0 0 24 24" fill='currentColor'><path d="M10.5 8.5h-2v4h-4v2h4v4h2v-4h4v-2h-4zM15 6.58V8.4l2.5-.5v10.6h2v-13z"/></svg>

<svg width="24" height="24" viewBox="0 0 24 24" xmlns="http://www.w3.org/2000/svg" fill='currentColor'><path d="M10.5 8.5H8.5V12.5H4.5V14.5H8.5V18.5H10.5V14.5H14.5V12.5H10.5V8.5ZM15 6.58V8.4L17.5 7.9V18.5H19.5V5.5L15 6.58Z"/></svg>
